static/assets/img/icons/theme/cooking/knife-fork-1.svg

<svg height="24" viewBox="0 0 24 24" width="24" xmlns="http://www.w3.org/2000/svg"><g fill="none" fill-rule="evenodd"><path d="m0 0h24v24h-24z" opacity="0"/><g fill="#000"><path d="m6 3 .45024814 4.5024814c.02824358.28243582.26590738.4975186.54975186.4975186s.52150828-.21508278.54975186-.4975186l.45024814-4.5024814h1l.45024814 4.5024814c.02824358.28243582.26590738.4975186.54975186.4975186.2838445 0 .5215083-.21508278.5497519-.4975186l.4502481-4.5024814h1v4.5c0 1.93299662-1.5670034 3.5-3.5 3.5-1.93299662 0-3.5-1.56700338-3.5-3.5v-4.5z"/><path d="m8.5 13c.56103732 0 1.02434927.4382868 1.05547002.9984604l.36132495 6.5038491c.04347079.7824742-.55560988 1.452035-1.33808414 1.4955058-.02621168.0014562-.05245873.0021847-.07871083.0021847-.78368085 0-1.4189797-.6352989-1.4189797-1.4189797 0-.0262521.00072852-.0524991.00218473-.0787108l.36132495-6.5038491c.03112075-.5601736.4944327-.9984604 1.05547002-.9984604z" opacity=".3"/><path d="m17.5 15c.5634495 0 1.0311029.4354411 1.071247.9974587l.3218824 4.5063533c.0549575.7694041-.524216 1.4376812-1.2936202 1.4926386-.033117.0023655-.0663078.0035494-.0995092.0035494-.7713644 0-1.3966788-.6253144-1.3966788-1.3966788 0-.0332014.0011839-.0663922.0035494-.0995092l.3218824-4.5063533c.0401441-.5620176.5077975-.9974587 1.071247-.9974587z" opacity=".3"/><path d="m19 3v10h-4v-6c0-2.209139 1.790861-4 4-4z"/></g></g></svg>

<svg width="24px" height="24px" viewBox="0 0 24 24" version="1.1" xmlns="http://www.w3.org/2000/svg" xmlns:xlink="http://www.w3.org/1999/xlink">
    <title>Icon For Knife&amp;fork#1</title>
    <g stroke="none" stroke-width="1" fill="none" fill-rule="evenodd">
        <rect opacity="0" x="0" y="0" width="24" height="24"></rect>
        <path d="M6,3 L6.45024814,7.5024814 C6.47849172,7.78491722 6.71615552,8 7,8 C7.28384448,8 7.52150828,7.78491722 7.54975186,7.5024814 L8,3 L9,3 L9.45024814,7.5024814 C9.47849172,7.78491722 9.71615552,8 10,8 C10.2838445,8 10.5215083,7.78491722 10.5497519,7.5024814 L11,3 L12,3 L12,7.5 C12,9.43299662 10.4329966,11 8.5,11 C6.56700338,11 5,9.43299662 5,7.5 L5,3 L6,3 Z" fill="#000000"></path>
        <path d="M8.5,13 L8.5,13 C9.06103732,13 9.52434927,13.4382868 9.55547002,13.9984604 L9.91679497,20.5023095 C9.96026576,21.2847837 9.36118509,21.9543445 8.57871083,21.9978153 C8.55249915,21.9992715 8.5262521,22 8.5,22 L8.5,22 C7.71631915,22 7.0810203,21.3647011 7.0810203,20.5810203 C7.0810203,20.5547682 7.08174882,20.5285212 7.08320503,20.5023095 L7.44452998,13.9984604 C7.47565073,13.4382868 7.93896268,13 8.5,13 Z" fill="#000000" opacity="0.3"></path>
        <path d="M17.5,15 L17.5,15 C18.0634495,15 18.5311029,15.4354411 18.571247,15.9974587 L18.8931294,20.503812 C18.9480869,21.2732161 18.3689134,21.9414932 17.5995092,21.9964506 C17.5663922,21.9988161 17.5332014,22 17.5,22 L17.5,22 C16.7286356,22 16.1033212,21.3746856 16.1033212,20.6033212 C16.1033212,20.5701198 16.1045051,20.536929 16.1068706,20.503812 L16.428753,15.9974587 C16.4688971,15.4354411 16.9365505,15 17.5,15 Z" fill="#000000" opacity="0.3"></path>
        <path d="M19,3 L19,13 L15,13 L15,7 C15,4.790861 16.790861,3 19,3 Z" fill="#000000"></path>
    </g>
</svg>
